X:1
T:Title
%%score { ( 1 4 ) | ( 2 3 ) }
L:1/8
Q:1/4=100
M:4/4
K:C
V:1 treble nm="Grand Piano"
V:4 treble 
V:2 bass 
V:3 bass 
V:1
 [EG]2 [EG]>[FA] [EG]2 [CE][DF] | [EG]2 [Ec]>[Ed] [Fc]2 [FB]2 | G2 G>A G2 Bc | d2 e>d [Ec]4 | %4
w: Thoro~Harris * * * * *||||
 [EG]2 [EG]>[FA] [EG]2 [CE][DF] | [EG]2 [Ec]>[Fd] c2 B2 | [^Fd]2 [FA][Ac] [GB][Gd] z [DG] | %7
w: |||
 [CEA][EAc][DGB][C^FA] [B,G]4 | [Ge]2 [Ge]>[Ge] [Ge]2 [Fd][Ec] | [Ac]2 [GB]>[FA] [EG]4 | %10
w: |||
 G2 c>d cB B2 | [B,FG]2 [B,Fd]>[B,Ge] [Fd][Ec] [Ec]2 | z2 e>e z4 | [Ac]2 [GB]>[FA] [EG]4 | %14
w: ||||
 z4 z2 B2 | [Ec]8 |] %16
w: ||
V:2
 [C,C]2 [C,C]>[C,C] [C,C]2 [C,G,][C,G,] | [C,G,]2 [C,G,]>[C,G,] [D,G,]2 [D,G,]2 | %2
 [G,B,F]2 [G,B,F]>[G,CF] [G,B,F]2 [G,D][G,CE] | [G,B,F]2 [G,B,G]>[G,B,F][K:bass] [C,C]4 | %4
 [C,C]2 [C,C]>[C,C] [C,C]2 [C,G,][C,G,] | [C,C]2 [C,G,]>[C,G,] [G,E]2 [G,D]2 | %6
 [D,A,]2 [D,D][D,D] [G,D][G,B,] z B,, | z4 G,4 | [C,C]2 [C,C]>[C,C] [C,C]2 [C,C][C,C] | %9
 [F,C]2 [F,C]>[F,C] [C,C]4 | [G,E]2 [G,E]>[G,F] [G,E][G,D][K:bass] [G,D]2 | %11
 G,,2 G,,>G,, [C,C][C,G,] [C,G,]2 | [C,C]2 [C,C]>[C,C] [C,C]2 [C,C][C,C] | %13
 [F,C]2 [F,C]>[F,C] [C,C]4 | [F,C]2 [D,C][F,A,F] [G,E]2 .[G,D]2 | [C,G,]8 |] %16
V:3
 x8 | x8 | x8 | x4[K:bass] x4 | x8 | x8 | x8 | C,A,,D,D, z F,E,D, | x8 | x8 | x6[K:bass] x2 | x8 | %12
 x8 | x8 | x8 | x8 |] %16
V:4
 x8 | x8 | x8 | x8 | x8 | x8 | x8 | x8 | x8 | x8 | x8 | x8 | [Ge]2 (3EF^F [Ge]2 [=Fd][Ec] | x8 | %14
 [FA]2 [Af]d c2 (3z EF | x8 |] %16

